X:179
T:Lord Baths Gate THO3.179
O:England;London
M:C|
L:1/8
Z:vmp. Peter Dunk 2011.from a transcription by Fynn Titford-Mock 2006-9
B:Thompson's Compleat Collection of 200 Favourite Country Dances Vol. III.1765-72
Q:1/2=75
K:D
dDAD BDAD|dDAD GDFD|dAfA eAaA|fdcB A2A,2::ezfzgzez|(f/g/a) aa a4|
ezfzgzez|fdec d4::dfad ee f2|dfad ee f2|g g2 f b b2 a|gefc d2D2:|

